simple/youtubemusic.svg

<svg viewBox="0 0 24 24" xmlns="http://www.w3.org/2000/svg"><path d="M12 0C5.376 0 0 5.376 0 12c0 6.62 5.376 12 12 12 6.62 0 12-5.38 12-12 0-6.63-5.38-12-12-12Zm0 19.1c-3.93 0-7.11-3.18-7.11-7.11s3.18-7.11 7.1-7.11c3.92 0 7.1 3.18 7.1 7.104 0 3.92-3.18 7.1-7.11 7.1ZM12 5.76c-3.44 0-6.228 2.79-6.228 6.228 0 3.43 2.79 6.22 6.228 6.22 3.43 0 6.22-2.8 6.22-6.228 0-3.44-2.8-6.23-6.23-6.23Zm-2.32 9.76v-7.08l6.13 3.54 -6.132 3.54Z"/></svg>

<svg role="img" viewBox="0 0 24 24" xmlns="http://www.w3.org/2000/svg"><title>YouTube Music</title><path d="M12 0C5.376 0 0 5.376 0 12s5.376 12 12 12 12-5.376 12-12S18.624 0 12 0zm0 19.104c-3.924 0-7.104-3.18-7.104-7.104S8.076 4.896 12 4.896s7.104 3.18 7.104 7.104-3.18 7.104-7.104 7.104zm0-13.332c-3.432 0-6.228 2.796-6.228 6.228S8.568 18.228 12 18.228s6.228-2.796 6.228-6.228S15.432 5.772 12 5.772zM9.684 15.54V8.46L15.816 12l-6.132 3.54z"/></svg>
